christians-website/frontend/static/images/Contact/gmail.svg

<svg enable-background="new 0 0 512 512" viewBox="0 0 512 512" xmlns="http://www.w3.org/2000/svg"><path d="m64 64h384v384h-384z" fill="#eceff1"/><path d="m256 296.384 192 151.616v-299.328z" fill="#cfd8dc"/><path d="m464 64h-16l-192 151.616-192-151.616h-16c-26.496 0-48 21.504-48 48v288c0 26.496 21.504 48 48 48h16v-299.328l192 147.68 192-147.712v299.36h16c26.496 0 48-21.504 48-48v-288c0-26.496-21.504-48-48-48z" fill="#f44336"/></svg>

<?xml version="1.0" encoding="iso-8859-1"?>
<!-- Generator: Adobe Illustrator 19.0.0, SVG Export Plug-In . SVG Version: 6.00 Build 0)  -->
<svg version="1.1" id="Capa_1" xmlns="http://www.w3.org/2000/svg" xmlns:xlink="http://www.w3.org/1999/xlink" x="0px" y="0px"
	 viewBox="0 0 512 512" style="enable-background:new 0 0 512 512;" xml:space="preserve">
<rect x="64" y="64" style="fill:#ECEFF1;" width="384" height="384"/>
<polygon style="fill:#CFD8DC;" points="256,296.384 448,448 448,148.672 "/>
<path style="fill:#F44336;" d="M464,64h-16L256,215.616L64,64H48C21.504,64,0,85.504,0,112v288c0,26.496,21.504,48,48,48h16V148.672
	l192,147.68L448,148.64V448h16c26.496,0,48-21.504,48-48V112C512,85.504,490.496,64,464,64z"/>
<g>
</g>
<g>
</g>
<g>
</g>
<g>
</g>
<g>
</g>
<g>
</g>
<g>
</g>
<g>
</g>
<g>
</g>
<g>
</g>
<g>
</g>
<g>
</g>
<g>
</g>
<g>
</g>
<g>
</g>
</svg>
